rospo-dark/small/status/checkbox-checked-symbolic.svg

<?xml version="1.0" encoding="UTF-8" standalone="no"?>
<svg
   xmlns:dc="http://purl.org/dc/elements/1.1/"
   xmlns:cc="http://creativecommons.org/ns#"
   xmlns:rdf="http://www.w3.org/1999/02/22-rdf-syntax-ns#"
   xmlns:svg="http://www.w3.org/2000/svg"
   xmlns="http://www.w3.org/2000/svg"
   xmlns:sodipodi="http://sodipodi.sourceforge.net/DTD/sodipodi-0.dtd"
   xmlns:inkscape="http://www.inkscape.org/namespaces/inkscape"
   width="22"
   height="22"
   version="1.1"
   id="svg6"
   sodipodi:docname="checkbox-checked-symbolic.svg"
   inkscape:version="0.92.1 r">
  <metadata
     id="metadata12">
    <rdf:RDF>
      <cc:Work
         rdf:about="">
        <dc:format>image/svg+xml</dc:format>
        <dc:type
           rdf:resource="http://purl.org/dc/dcmitype/StillImage" />
      </cc:Work>
    </rdf:RDF>
  </metadata>
  <defs
     id="defs10" />
  <sodipodi:namedview
     pagecolor="#ffffff"
     bordercolor="#666666"
     borderopacity="1"
     objecttolerance="10"
     gridtolerance="10"
     guidetolerance="10"
     inkscape:pageopacity="0"
     inkscape:pageshadow="2"
     inkscape:window-width="769"
     inkscape:window-height="480"
     id="namedview8"
     showgrid="false"
     inkscape:zoom="10.727273"
     inkscape:cx="11"
     inkscape:cy="11"
     inkscape:window-x="0"
     inkscape:window-y="0"
     inkscape:window-maximized="0"
     inkscape:current-layer="svg6" />
  <g
     id="g4491"
     transform="translate(1.9981963,3)">
    <path
       id="path2"
       d="M 4,2 C 2.89,2 2,2.89 2,4 v 8 c 0,1.11 0.89,2 2,2 h 8 c 1.11,0 2,-0.89 2,-2 V 7.25 L 13,8.41 V 12 c 0,0.55 -0.45,1 -1,1 H 4 C 3.45,13 3,12.55 3,12 V 4 C 3,3.45 3.45,3 4,3 h 8 c 0.13,0 0.23,0.05 0.34,0.09 L 13.03,2.28 C 12.73,2.1 12.38,2 12,2 Z"
       style="fill:#d3dae3"
       inkscape:connector-curvature="0" />
    <path
       id="path4"
       d="M 14.278,2.3705 8.0005,9.561 5.7505,7.3105 c -0.4618,-0.4497 -1.06,-0.37 -1.44,0 -0.37,0.38 -0.4557,0.9842 0,1.44 L 8.0905,12.5 15.778,3.6905 c 0.759,-0.8699 -0.564,-2.3919 -1.5,-1.32 z"
       style="fill:#d3dae3"
       inkscape:connector-curvature="0" />
  </g>
</svg>

<svg xmlns="http://www.w3.org/2000/svg" width="16" height="16" version="1.1">
 <path style="fill:#5c616c" d="M 4,2 C 2.89,2 2,2.89 2,4 V 12 C 2,13.11 2.89,14 4,14 H 12 C 13.11,14 14,13.11 14,12 V 7.25 L 13,8.41 V 12 C 13,12.55 12.55,13 12,13 H 4 C 3.45,13 3,12.55 3,12 V 4 C 3,3.45 3.45,3 4,3 H 12 C 12.13,3 12.23,3.05 12.34,3.09 L 13.03,2.28 C 12.73,2.1 12.38,2 12,2 Z"/>
 <path style="fill:#5c616c" d="M 14.278,2.3705 8.0005,9.561 5.7505,7.3105 C 5.2887,6.8608 4.6905,6.9405 4.3105,7.3105 3.9405,7.6905 3.8548,8.2947 4.3105,8.7505 L 8.0905,12.5 15.778,3.6905 C 16.537,2.8206 15.214,1.2986 14.278,2.3705 Z"/>
</svg>
